src/assets/img/globalping/github.small.svg

<svg width="21" height="21" viewBox="0 0 21 21" fill="none" xmlns="http://www.w3.org/2000/svg">
<path d="M13.8333 19.3334V16.1084C13.8646 15.711 13.8109 15.3115 13.6758 14.9365C13.5408 14.5615 13.3274 14.2195 13.05 13.9334C15.6667 13.6417 18.4167 12.65 18.4167 8.10003C18.4164 6.93655 17.9689 5.8177 17.1667 4.97503C17.5465 3.95712 17.5197 2.83199 17.0917 1.83336C17.0917 1.83336 16.1083 1.5417 13.8333 3.0667C11.9233 2.54905 9.90998 2.54905 7.99999 3.0667C5.72499 1.5417 4.74166 1.83336 4.74166 1.83336C4.31364 2.83199 4.28678 3.95712 4.66666 4.97503C3.85843 5.82395 3.41043 6.95292 3.41666 8.12503C3.41666 12.6417 6.16666 13.6334 8.78332 13.9584C8.50915 14.2417 8.29771 14.5795 8.16275 14.95C8.02778 15.3204 7.97233 15.7151 7.99999 16.1084V19.3334M7.99999 16.8334C3.83332 18.0834 3.83332 14.75 2.16666 14.3334L7.99999 16.8334Z" stroke="white" stroke-width="2" stroke-linecap="round" stroke-linejoin="round"/>
</svg>

<svg xmlns="http://www.w3.org/2000/svg" width="21" height="21" fill="none">
  <path stroke="#fff" stroke-linecap="round" stroke-linejoin="round" stroke-width="2" d="M13.833 19.333v-3.225a2.807 2.807 0 0 0-.783-2.175c2.617-.291 5.367-1.283 5.367-5.833a4.534 4.534 0 0 0-1.25-3.125 4.225 4.225 0 0 0-.075-3.142s-.984-.291-3.259 1.234a11.15 11.15 0 0 0-5.833 0C5.725 1.542 4.742 1.833 4.742 1.833a4.225 4.225 0 0 0-.075 3.142 4.533 4.533 0 0 0-1.25 3.15c0 4.517 2.75 5.508 5.366 5.833A2.808 2.808 0 0 0 8 16.108v3.225m0-2.5c-4.167 1.25-4.167-2.083-5.833-2.5L8 16.833Z"/>
</svg>
